src/images/bridges/optics.svg

<svg width="36" height="36" viewBox="0 0 36 36" fill="none" xmlns="http://www.w3.org/2000/svg">
<circle cx="18" cy="18" r="18" fill="black"/>
<path d="M27.0633 12.6003L29.4502 17.9856L27.0633 23.3661L24.0976 24.0941L25.5925 17.9856L24.0928 11.8723L27.0633 12.6003Z" fill="#5A94E8"/>
<path d="M24.0929 11.8723L25.5925 17.9856L20.915 15.0639L17.988 10.3777L24.0929 11.8723Z" fill="#4664E5"/>
<path d="M25.5925 17.9855L24.0977 24.0939L17.988 25.5885L20.915 20.912L25.5925 17.9855Z" fill="#A63099"/>
<path d="M25.5926 17.9855L20.915 20.9119L22.7426 17.9855L20.915 15.0638L25.5926 17.9855Z" fill="#5A94E8"/>
<path d="M24.0976 24.094L23.3694 27.0591L17.9879 29.4455L12.6015 27.0591L11.8734 24.0892L17.9879 25.5886L24.0976 24.094Z" fill="#E24084"/>
<path d="M23.3694 8.91195L24.0928 11.8722L17.9879 10.3776L11.8734 11.8722L12.6015 8.91195L17.9879 6.52545L23.3694 8.91195Z" fill="#6EC7EC"/>
<path d="M17.9879 10.3777L20.915 15.0639L17.9879 13.2319L15.0609 15.0591L17.9879 10.3777Z" fill="#6EC7EC"/>
<path d="M20.9151 20.9121L17.988 25.5887L15.0658 20.9121L17.988 22.7393L20.9151 20.9121Z" fill="#E24084"/>
<path d="M17.9879 10.3777L15.0609 15.0591L10.3785 17.9856L11.8734 11.8723L17.9879 10.3777Z" fill="#413EDB"/>
<path d="M15.0657 20.912L17.9879 25.5885L11.8734 24.0891L10.3785 17.9855L15.0657 20.912Z" fill="#7F0A77"/>
<path d="M15.0657 20.9121L10.3785 17.9856L15.0609 15.0591L13.2333 17.9856L15.0657 20.9121Z" fill="#A63099"/>
<path d="M8.91256 12.6003L11.8734 11.8723L10.3785 17.9856L11.8734 24.0893L8.91256 23.3661L6.52557 17.9856L8.91256 12.6003Z" fill="#A63099"/>
<path d="M17.988 6.52551L23.3695 8.93612L24.0928 11.8964L27.0633 12.6243L29.4744 18.0096L27.0633 23.3901L24.0976 24.094L23.3695 27.059L17.988 29.4456L12.6016 27.059L11.8734 24.0892L8.9126 23.366L6.52562 17.9856L8.9126 12.6002L11.8734 11.8964L12.6016 8.93612L17.988 6.52551ZM17.988 22.7392L20.915 20.912L22.7426 17.9856L20.915 15.0639L17.988 13.2318L15.0609 15.059L13.2333 17.9856L15.0657 20.912L17.988 22.7392ZM17.988 6L17.7902 6.11089L12.4039 8.52149L12.1917 8.61792L12.1338 8.84452L11.4732 11.5251L8.79686 12.1808L8.5654 12.2387L8.47378 12.4556L6.0868 17.7927L6 17.9856L6.0868 18.1832L8.47378 23.5637L8.57022 23.7806L8.79686 23.8337L11.4732 24.4894L12.1338 27.1748L12.1917 27.4062L12.4039 27.5026L17.7902 29.9132L17.988 30L18.1857 29.9132L23.5672 27.5026L23.7794 27.4062L23.8372 27.1748L24.4979 24.4942L27.179 23.8337L27.4105 23.7806L27.5021 23.5637L29.9132 18.1832L30 17.9856L29.9132 17.7927L27.5021 12.4074L27.4105 12.1904L27.179 12.1326L24.4931 11.4769L23.8372 8.80113L23.7745 8.56971L23.5624 8.47328L18.1857 6.11089L17.988 6ZM15.4129 15.411L17.988 13.8248L20.563 15.4399L22.1736 18.0096L20.563 20.5745L17.988 22.1703L15.4177 20.5745L13.8023 17.9952L15.4129 15.4207V15.411Z" fill="white"/>
<path d="M29.5611 17.9856L24.1555 14.3986L27.097 12.6533L27.0343 12.5521L24.0446 14.307L22.5979 13.3427L21.6335 11.8964L23.408 8.90242L23.3068 8.83975L21.5611 11.7855L18.0361 6.49182L17.9879 6.4195L14.4002 11.8241L12.6546 8.87832L12.5533 8.941L14.3279 11.935L13.3635 13.3813L11.9168 14.3456L8.92703 12.5714L8.86434 12.6726L11.8059 14.4179L6.50147 17.9566L6.42432 18.0049L11.83 21.5919L8.88845 23.3372L8.95114 23.4384L11.9409 21.6642L13.3875 22.6284L14.352 24.0748L12.5774 27.0639L12.6787 27.1266L14.4243 24.1857L17.9638 29.489L18.012 29.5662L21.5997 24.1616L23.3453 27.1025L23.4466 27.0398L21.6721 24.0507L22.6365 22.6043L24.0831 21.6401L27.0729 23.4094L27.1356 23.3082L24.1941 21.5629L29.5226 18.029L29.5611 17.9856ZM23.9288 14.3938L23.4466 14.6686L22.7763 13.632L23.9288 14.3938ZM17.8143 17.8168L12.616 14.7313L13.4599 13.4585L14.7329 12.6148L17.8143 17.8168ZM14.8294 12.5472L17.9879 10.45L21.1465 12.5424L17.9879 17.8699L14.8294 12.5472ZM17.8673 17.9856L12.563 21.1435L10.4701 17.9856L12.563 14.8325L17.8673 17.9856ZM17.8143 18.1592L14.7329 23.3564L13.4599 22.5031L12.616 21.2351L17.8143 18.1592ZM17.9879 18.1061L21.1465 23.4094L17.9879 25.5212L14.8294 23.4239L17.9879 18.1061ZM18.1615 18.1592L23.3598 21.2447L22.5159 22.5031L21.2429 23.3468L18.1615 18.1592ZM18.1036 17.9856L23.408 14.8325L25.5009 17.9856L23.408 21.1435L18.1036 17.9856ZM18.1615 17.8168L21.2429 12.6148L22.5159 13.4585L23.3598 14.7313L18.1615 17.8168ZM22.3279 13.1981L21.2863 12.5087L21.5611 12.0507L22.3279 13.1981ZM17.9879 6.63646L21.5081 11.9398L21.2043 12.4509L18.0217 10.3343H17.9879L14.7715 12.4701L14.4677 11.9591L17.9879 6.63646ZM14.3954 12.0458L14.6703 12.528L13.6479 13.1981L14.3954 12.0458ZM13.1995 13.632L12.5099 14.6686L12.0277 14.3938L13.1995 13.632ZM6.63167 17.9711L11.9361 14.4516L12.4424 14.7891L10.3303 17.9711L10.3062 18.0049L12.4424 21.2254L11.9361 21.5243L6.63167 17.9711ZM12.047 21.5629L12.5292 21.2881L13.2188 22.3295L12.047 21.5629ZM13.6479 22.7731L14.6703 23.4673L14.3954 23.9494L13.6479 22.7731ZM17.9879 29.3396L14.4677 24.0362L14.7715 23.5541L17.9542 25.6658L17.9879 25.6899L21.2043 23.5541L21.5081 24.0362L17.9879 29.3396ZM21.5804 23.9494L21.3056 23.4673L22.3279 22.7731L21.5804 23.9494ZM22.7763 22.3681L23.4659 21.3267L23.9481 21.6015L22.7763 22.3681ZM24.0398 21.5292L23.5575 21.2302L25.6696 18.0434V18.0097L23.5334 14.7891L24.0157 14.4854L29.32 18.0049L24.0398 21.5292Z" fill="white"/>
</svg>

<svg xmlns="http://www.w3.org/2000/svg" width="36" height="36" fill="none"><circle cx="18" cy="18" r="18" fill="#000"/><path fill="#5A94E8" d="m27.063 12.6 2.387 5.386-2.387 5.38-2.965.728 1.495-6.108-1.5-6.114z"/><path fill="#4664E5" d="m24.093 11.872 1.5 6.114-4.678-2.922-2.927-4.686z"/><path fill="#A63099" d="m25.593 17.986-1.495 6.108-6.11 1.494 2.927-4.676z"/><path fill="#5A94E8" d="m25.593 17.986-4.678 2.926 1.828-2.927-1.828-2.921z"/><path fill="#E24084" d="m24.098 24.094-.729 2.965-5.381 2.386-5.386-2.386-.729-2.97 6.115 1.5z"/><path fill="#6EC7EC" d="m23.37 8.912.723 2.96-6.105-1.494-6.115 1.494.729-2.96 5.386-2.387z"/><path fill="#6EC7EC" d="m17.988 10.378 2.927 4.686-2.927-1.832-2.927 1.827z"/><path fill="#E24084" d="m20.915 20.912-2.927 4.677-2.922-4.677 2.922 1.827z"/><path fill="#413EDB" d="m17.988 10.378-2.927 4.681-4.682 2.927 1.494-6.114z"/><path fill="#7F0A77" d="m15.066 20.912 2.922 4.677-6.115-1.5-1.494-6.103z"/><path fill="#A63099" d="m15.066 20.912-4.687-2.926 4.682-2.927-1.828 2.927z"/><path fill="#A63099" d="m8.913 12.6 2.96-.728-1.494 6.114 1.494 6.103-2.96-.723-2.387-5.38z"/><path fill="#fff" d="m17.988 6.526 5.381 2.41.724 2.96 2.97.728 2.411 5.386-2.41 5.38-2.966.704-.729 2.965-5.381 2.387-5.386-2.387-.729-2.97-2.96-.723-2.387-5.38L8.913 12.6l2.96-.704.729-2.96zm0 16.213 2.927-1.827 1.828-2.926-1.828-2.922-2.927-1.832-2.927 1.827-1.828 2.927 1.833 2.926zm0-16.739-.198.11-5.386 2.411-.212.097-.058.227-.66 2.68-2.677.656-.232.058-.091.217-2.387 5.337-.087.193.087.197 2.387 5.38.096.218.227.053 2.676.655.66 2.686.059.231.212.097 5.386 2.41.198.087.198-.087 5.381-2.41.212-.097.058-.231.66-2.68 2.682-.661.232-.053.091-.217 2.411-5.38.087-.198-.087-.193-2.41-5.386-.093-.217-.231-.057-2.686-.656-.656-2.676-.062-.231-.213-.097-5.376-2.362zm-2.575 9.411 2.575-1.586 2.575 1.615 1.61 2.57-1.61 2.564-2.575 1.596-2.57-1.596-1.616-2.579 1.61-2.574z"/><path fill="#fff" d="m29.561 17.986-5.405-3.587 2.941-1.746-.063-.1-2.99 1.754-1.446-.964-.964-1.447 1.774-2.994-.101-.062-1.746 2.946-3.525-5.294-.048-.072-3.588 5.404-1.745-2.946-.102.063 1.775 2.994-.964 1.446-1.447.965-2.99-1.775-.063.102 2.942 1.745L6.5 17.957l-.077.048 5.406 3.587-2.942 1.745.063.101 2.99-1.774 1.446.964.965 1.447-1.775 2.989.102.063 1.745-2.941 3.54 5.303.048.077 3.588-5.404 1.745 2.94.102-.062-1.775-2.99.965-1.446 1.446-.964 2.99 1.77.063-.102-2.942-1.745 5.329-3.534zm-5.632-3.592-.482.275-.67-1.037zm-6.115 3.423-5.198-3.086.844-1.272 1.273-.844zm-2.985-5.27 3.159-2.097 3.159 2.092-3.16 5.328zm3.038 5.439-5.304 3.157-2.093-3.157 2.093-3.154zm-.053.173-3.081 5.197-1.273-.853-.844-1.268zm.174-.053 3.159 5.303-3.16 2.112-3.158-2.097zm.174.053 5.198 3.086-.844 1.258-1.273.844zm-.058-.173 5.304-3.154 2.093 3.154-2.093 3.157zm.058-.17 3.08-5.201 1.274.844.844 1.272zm4.166-4.618-1.042-.69.275-.457zm-4.34-6.562 3.52 5.304-.304.51-3.182-2.116h-.034l-3.216 2.136-.304-.51zm-3.593 5.41.275.482-1.022.67zM13.2 13.632l-.69 1.037-.482-.275zm-6.568 4.34 5.304-3.52.506.337-2.112 3.182-.024.034 2.136 3.22-.506.3zm5.415 3.59.482-.274.69 1.041zm1.6 1.211 1.023.694-.275.482zm4.34 6.567-3.52-5.304.304-.482 3.183 2.112.034.024 3.216-2.136.304.482zm3.593-5.39-.274-.483 1.022-.694zm1.196-1.582.69-1.041.482.274zm1.264-.839-.482-.299 2.112-3.187v-.033l-2.137-3.22.483-.305 5.304 3.52z"/></svg>
